X:1
T:There Is Rest in the Lord
T:There Is Rest in the Lord
T:George W. Stapleton
T:George W. Winningham, 1912
T:Public Domain Courtesy of the Cyber Hymnal™
T:Public Domain Courtesy of the Cyber Hymnal™
C:George W. Stapleton
Z:Public Domain
Z:Courtesy of the Cyber Hymnal™
%%score ( 1 2 ) ( 3 4 )
L:1/8
Q:1/4=90
M:4/4
K:A
V:1 treble 
V:2 treble 
V:3 bass 
V:4 bass 
V:1
 [CE]>[DF] | [EA]>[EB] [EA]>[CE] [DF]<[CE] [CE]>[DF] | [FA]>[FB] [FA]>[DF] [CE]2 (3(EF)A | %3
w: 1.~Are you|tired of sin and sor- row? Does your|cross seem hard to bear? There * is|
w: 2.~Peace you|will not find while rov- ing, For the|world no peace can give, There * is|
w: 3.~Lin- ger|not with Sa- tan’s forc- es, Doubt- ing|what he’s pro- mised you, There * is|
 (z2 [^Dc]>)[DA] x6 |S B4 [CE]>[=DF] x2 | [EA]>[EB] [EA]>[CE] [DF]<[CE] [CE]>[DF] | %6
w: * rest|in the Lord;|Cease to roam in sin’s dark val- ley,|
w: * rest|in the Lord;|Come re- pent- ing and be- liev- ing,|
w: * rest|in the Lord;|Con- quer all your fears and doubt- ings,|
 [FA]>[FB] [FA]>[DF] [CE]2 (3(EF)A | (z2 F>F A2) [GB]>[GB] | A6 ||"^Refrain" (3(cB)A | %10
w: And re- nounce your load of * care.|* * * There is|rest|in * the|
w: Choose a bet- ter life to * live.|* * * There is|rest|in * the|
w: Come and join the faith- ful * few,|* * * There is|rest|in * the|
 (z A2) (3([Ac][EB])[FA] x4 | e6 (3(EF)A | (z [^Dc]>)[DA] x8 | B6 [CE]>[=DF]!D.S.! | %14
w: * Lord. * *||||
w: * Lord. * There|* is * rest|* in|the Lord, There|
w: * Lord. * *||||
 [EA]>[EB] [EA]>[CE] [DF]<[CE] [CE]>[DF] | [FA]>[FB] [FA]>[DF] [CE]2 (3(EF)A | %16
w: ||
w: is rest in the Lord, Bid fare- well|to sin and sor- row, Close * your|
w: ||
 (z2 F>F A2) [GB]>[GB] | A6 |] %18
w: ||
w: * * * eyes to|world-|
w: ||
V:2
 x2 | x8 | x8 | (c6 F>FFE) | (E>E^D>D E2) x2 | x8 | x8 | (c4 FA) x2 | (A>EF>F E2) || x2 | e6 AG>B | %11
 (c>AG>B A2) x2 | (c6 FF>FFE) | (E>E^D>D E2) x2 | x8 | x8 | (c4 FA) x2 | (A>EF>F E2) |] %18
V:3
 [A,,A,]>[A,,A,] | [A,,C]>[A,,D] [A,,C]>[A,,A,] [A,,A,]<[A,,A,] [A,,A,]>[A,,A,] | %2
 [D,A,]>[D,D] [D,D]>[D,A,] [A,,A,]2 z2 | z2 [F,A,]>[F,A,] A,2 [B,,A,]>[B,,F,] x2 | %4
 ([E,G,]>[E,G,][B,,F,]>[B,,F,] [E,G,]2) [A,,A,]>[A,,A,] | %5
 [A,,C]>[A,,D] [A,,C]>[A,,A,] [A,,A,]<[A,,A,] [A,,A,]>[A,,A,] | %6
 [D,A,]>[D,D] [D,D]>[D,A,] [A,,A,]2 z2 | z2 [F,A,]>[F,A,] A,2 [E,D]>[E,D] | (C>CD>D C2) || z2 | %10
 z [A,C] [E,B,]>[E,D] [A,C]2 (3ED[A,C] x | [A,E]>[A,C] [E,B,]>[E,D] [A,C]2 z2 | %12
 z [F,A,] [F,A,]>[F,A,] A,2 [B,,A,]>[B,,F,] x3 | %13
 [E,G,]>[E,G,] [B,,F,]>[B,,F,] [E,G,]2 [A,,A,]>[A,,A,] | %14
 [A,,C]>[A,,D] [A,,C]>[A,,A,] [A,,A,]<[A,,A,] [A,,A,]>[A,,A,] | %15
 [D,A,]>[D,D] [D,D]>[D,A,] [A,,A,]2 z2 | z2 ([F,A,]3/2 [F,A,]/ A,2) [E,D]>[E,D] | (C>CD>D C2) |] %18
V:4
 x2 | x8 | x8 | x4 (F,C,) x4 | x8 | x8 | x8 | x4 (F,C,) x2 | [A,,A,]6 || x2 | x6 A,2 x | x8 | %12
 x4 F,C, x5 | x8 | x8 | x8 | x4 (F,C,) x2 | [A,,A,]6 |] %18

